Sources/FrostedUI/Resources/Icons.xcassets/infoSquare32.imageset/info-square-32.svg

<svg width="32" height="32" viewBox="0 0 32 32" fill="none" xmlns="http://www.w3.org/2000/svg" data-fui-icon="true">
  <path
    d="M26.1797 2C28.5656 2 30.5 3.93444 30.5 6.32031V25.6797C30.5 28.0656 28.5656 30 26.1797 30H6.82031C4.43444 30 2.5 28.0656 2.5 25.6797V6.32031C2.5 3.93444 4.43444 2 6.82031 2H26.1797ZM6.82031 3.5C5.26287 3.5 4 4.76287 4 6.32031V25.6797C4 27.2371 5.26287 28.5 6.82031 28.5H26.1797C27.7371 28.5 29 27.2371 29 25.6797V6.32031C29 4.76287 27.7371 3.5 26.1797 3.5H6.82031ZM18.25 13C18.6642 13 19 13.3358 19 13.75V23.5H20.25C20.6642 23.5 21 23.8358 21 24.25C20.9999 24.6642 20.6642 25 20.25 25H12.75C12.3358 25 12.0001 24.6642 12 24.25C12 23.8358 12.3358 23.5 12.75 23.5H14V14.5H12.75C12.3358 14.5 12 14.1642 12 13.75C12 13.3358 12.3358 13 12.75 13H18.25ZM15.5 23.5H17.5V14.5H15.5V23.5ZM16.5 7.00391C17.8807 7.00391 18.9999 8.12325 19 9.50391C19 10.8846 17.8807 12.0039 16.5 12.0039C15.1193 12.0039 14 10.8846 14 9.50391C14.0001 8.12325 15.1193 7.00391 16.5 7.00391ZM16.5 8.50391C15.9478 8.50391 15.5001 8.95168 15.5 9.50391C15.5 10.0562 15.9477 10.5039 16.5 10.5039C17.0523 10.5039 17.5 10.0562 17.5 9.50391C17.4999 8.95168 17.0522 8.50391 16.5 8.50391Z"
    fill="currentColor"
  />
</svg>

<svg xmlns="http://www.w3.org/2000/svg" width="32" height="32" fill="none" data-fui-icon="true" viewBox="0 0 32 32"><path fill="currentColor" d="M26.18 2a4.32 4.32 0 0 1 4.32 4.32v19.36A4.32 4.32 0 0 1 26.18 30H6.82a4.32 4.32 0 0 1-4.32-4.32V6.32A4.32 4.32 0 0 1 6.82 2zM6.82 3.5A2.82 2.82 0 0 0 4 6.32v19.36a2.82 2.82 0 0 0 2.82 2.82h19.36A2.82 2.82 0 0 0 29 25.68V6.32a2.82 2.82 0 0 0-2.82-2.82zM18.25 13a.75.75 0 0 1 .75.75v9.75h1.25a.75.75 0 0 1 0 1.5h-7.5a.75.75 0 0 1 0-1.5H14v-9h-1.25a.75.75 0 0 1 0-1.5zM15.5 23.5h2v-9h-2zm1-16.496a2.5 2.5 0 1 1 0 5 2.5 2.5 0 0 1 0-5m0 1.5a1 1 0 1 0 0 2 1 1 0 0 0 0-2"/></svg>
